_includes/icons/color-vimeo.svg

<svg fill="#666" height="50" viewBox="0 0 48 48" width="50" xmlns="http://www.w3.org/2000/svg"><path d="m45 14.300781c-.199219 4.097657-3 9.597657-8.601562 16.597657-5.699219 7.402343-10.5 11-14.5 11-2.398438 0-4.5-2.199219-6.199219-6.699219-1.097656-4.097656-2.300781-8.199219-3.398438-12.300781-1.300781-4.5-2.601562-6.699219-4-6.699219-.300781 0-1.402343.5-3.300781 1.800781l-2-2.300781c2.101563-1.800781 4-3.097656 6-4.898438 2.800781-2.402343 4.800781-3.601562 6.199219-3.699218 3.300781-.300782 5.300781 1.898437 6 6.597656.800781 5.101562 1.5 7.800781 1.800781 9 .898438 4.199219 2 6.402344 3.101563 6.402344.898437 0 2.199218-1.402344 4-4.101563 1.796875-2.800781 2.699218-4.800781 2.796875-6.300781.300781-2.398438-.699219-3.597656-2.796875-3.597656-1 0-2.101563.5-3.203125.898437 2.101562-6.699219 6.101562-10.199219 11.902343-10 4.398438.101563 6.398438 2.898438 6.199219 8.300781z" fill="#29b6f6"/></svg>

<svg xmlns="http://www.w3.org/2000/svg" viewBox="0 0 48 48" width="50" height="50" fill="#666"><path d="M 45 14.300781 C 44.800781 18.398438 42 23.898438 36.398438 30.898438 C 30.699219 38.300781 25.898438 41.898438 21.898438 41.898438 C 19.5 41.898438 17.398438 39.699219 15.699219 35.199219 C 14.601563 31.101563 13.398438 27 12.300781 22.898438 C 11 18.398438 9.699219 16.199219 8.300781 16.199219 C 8 16.199219 6.898438 16.699219 5 18 L 3 15.699219 C 5.101563 13.898438 7 12.601563 9 10.800781 C 11.800781 8.398438 13.800781 7.199219 15.199219 7.101563 C 18.5 6.800781 20.5 9 21.199219 13.699219 C 22 18.800781 22.699219 21.5 23 22.699219 C 23.898438 26.898438 25 29.101563 26.101563 29.101563 C 27 29.101563 28.300781 27.699219 30.101563 25 C 31.898438 22.199219 32.800781 20.199219 32.898438 18.699219 C 33.199219 16.300781 32.199219 15.101563 30.101563 15.101563 C 29.101563 15.101563 28 15.601563 26.898438 16 C 29 9.300781 33 5.800781 38.800781 6 C 43.199219 6.101563 45.199219 8.898438 45 14.300781 Z" fill="#29b6f6"/></svg>
